assets/svg/clothing.svg

<?xml version="1.0" encoding="utf-8"?><!-- Uploaded to: SVG Repo, www.svgrepo.com, Generator: SVG Repo Mixer Tools -->
<svg width="800px" height="800px" viewBox="0 0 24 24" fill="none" xmlns="http://www.w3.org/2000/svg">
<path d="M9.53589 3.90909C9.53589 2.85473 10.4868 2 11.6599 2C12.8329 2 13.7839 2.85473 13.7839 3.90909C13.7839 4.40532 13.6046 4.85733 13.2925 5.19682C12.6948 5.84706 11.8015 6.50197 11.8015 7.34545V7.6299M11.8015 7.6299C12.533 7.6214 13.2674 7.82458 13.8845 8.24056L21.317 13.2509C22.6234 14.1315 21.9305 16 20.2975 16H18M11.8015 7.6299C11.076 7.63834 10.3534 7.85497 9.751 8.27872L2.65531 13.27C1.38322 14.1648 2.08721 16 3.70254 16H6" stroke="#1C274C" stroke-width="1.5" stroke-linecap="round"/>
<path d="M6 18C6 16.1144 6 15.1716 6.58579 14.5858C7.17157 14 8.11438 14 10 14H14C15.8856 14 16.8284 14 17.4142 14.5858C18 15.1716 18 16.1144 18 18C18 19.8856 18 20.8284 17.4142 21.4142C16.8284 22 15.8856 22 14 22H10C8.11438 22 7.17157 22 6.58579 21.4142C6 20.8284 6 19.8856 6 18Z" stroke="#1C274C" stroke-width="1.5"/>
</svg>

<svg xmlns="http://www.w3.org/2000/svg" width="800" height="800" fill="none" viewBox="0 0 24 24">
    <path stroke="#1c274c" stroke-linecap="round" stroke-width="1.5"
        d="M9.536 3.91c0-1.055.95-1.91 2.124-1.91 1.173 0 2.124.855 2.124 1.91 0 .495-.18.947-.492 1.287-.597.65-1.49 1.305-1.49 2.148v.285m0 0a3.66 3.66 0 0 1 2.082.61l7.433 5.01c1.306.882.613 2.75-1.02 2.75H18m-6.198-8.37a3.64 3.64 0 0 0-2.051.649L2.655 13.27C1.383 14.165 2.087 16 3.703 16H6" />
    <path stroke="#1c274c" stroke-width="1.5"
        d="M6 18c0-1.886 0-2.828.586-3.414S8.114 14 10 14h4c1.886 0 2.828 0 3.414.586S18 16.114 18 18s0 2.828-.586 3.414S15.886 22 14 22h-4c-1.886 0-2.828 0-3.414-.586S6 19.886 6 18Z" />
</svg>
